img/logo.svg

<svg width="215" height="28" viewBox="0 0 215 28" fill="none" xmlns="http://www.w3.org/2000/svg">
<path d="M16.1549 22.3648C14.0044 22.3648 12.3586 21.8467 11.2175 20.8104C10.091 19.7742 9.52775 18.2642 9.52775 16.2806V11.5064H13.8069V15.792C13.8069 16.7987 14.0483 17.5537 14.531 18.057C15.0284 18.5455 15.7526 18.7898 16.7035 18.7898C17.3179 18.7898 17.8958 18.7305 18.4371 18.6121C18.993 18.4789 19.4831 18.279 19.9073 18.0126L20.0171 21.5432C19.3002 21.8097 18.62 22.0169 17.9763 22.165C17.3472 22.2982 16.7401 22.3648 16.1549 22.3648ZM19.4246 27.0502V11.5064H23.7037V27.0502H19.4246Z" fill="white"/>
<path d="M27.002 27.0502V11.5064H31.2811V20.6328L37.623 11.5064H41.7046V27.0502H37.4255V17.946L31.1056 27.0502H27.002Z" fill="white"/>
<path d="M48.4044 27.0502V14.0156L49.3699 14.9926H43.6864V11.5064H57.3796V14.9926H51.718L52.6835 14.0156V27.0502H48.4044Z" fill="white"/>
<path d="M59.3825 27.0502V11.5064H63.6616V16.4582H67.2165C69.0891 16.4582 70.5374 16.8801 71.5615 17.7239C72.6002 18.5677 73.1195 19.8334 73.1195 21.521C73.1195 23.3419 72.5417 24.7186 71.3859 25.6512C70.2302 26.5838 68.6502 27.0502 66.646 27.0502H59.3825ZM63.6616 23.897H66.3607C67.0922 23.897 67.6701 23.6971 68.0943 23.2974C68.5332 22.8978 68.7526 22.3352 68.7526 21.6098C68.7526 20.8697 68.5332 20.3515 68.0943 20.0555C67.6701 19.7446 67.0922 19.5892 66.3607 19.5892H63.6616V23.897ZM74.8092 27.0502V11.5064H79.0883V27.0502H74.8092Z" fill="white"/>
<path d="M99.0541 27.0502V11.5064H103.399V27.0502H99.0541ZM88.7842 27.0502V11.5064H93.1292V27.0502H88.7842ZM92.822 20.9881V17.3464H99.3613V20.9881H92.822Z" fill="white"/>
<path d="M105.163 27.0502L111.944 11.5064H116.223L123.026 27.0502H118.506L113.195 13.6603H114.907L109.596 27.0502H105.163ZM108.872 24.0302L109.991 20.7882H117.496L118.615 24.0302H108.872Z" fill="white"/>
<path d="M131.063 27.0502V11.5064H138.085C139.489 11.5064 140.696 11.7358 141.706 12.1948C142.73 12.6537 143.52 13.3198 144.076 14.1932C144.632 15.0519 144.91 16.0733 144.91 17.2576C144.91 18.4271 144.632 19.4411 144.076 20.2997C143.52 21.1583 142.73 21.8245 141.706 22.2982C140.696 22.7571 139.489 22.9866 138.085 22.9866H133.477L135.408 21.0769V27.0502H131.063ZM135.408 21.5432L133.477 19.5225H137.822C138.729 19.5225 139.402 19.3227 139.84 18.923C140.294 18.5233 140.521 17.9682 140.521 17.2576C140.521 16.5322 140.294 15.9697 139.84 15.57C139.402 15.1703 138.729 14.9704 137.822 14.9704H133.477L135.408 12.9497V21.5432Z" fill="white"/>
<path d="M173.489 27.361C171.221 27.361 169.451 26.7319 168.178 25.4736C166.905 24.2153 166.269 22.4314 166.269 20.1221V11.5064H170.614V19.9888C170.614 21.3212 170.87 22.276 171.382 22.8533C171.909 23.4307 172.625 23.7194 173.532 23.7194C174.439 23.7194 175.149 23.4307 175.661 22.8533C176.173 22.276 176.429 21.3212 176.429 19.9888V11.5064H180.708V20.1221C180.708 22.4314 180.072 24.2153 178.799 25.4736C177.526 26.7319 175.756 27.361 173.489 27.361Z" fill="white"/>
<path d="M183.652 27.0502V11.5064H191.508C193.526 11.5064 195.033 11.8839 196.028 12.6389C197.023 13.379 197.52 14.3561 197.52 15.57C197.52 16.3694 197.308 17.0725 196.884 17.6795C196.474 18.2716 195.889 18.7453 195.128 19.1006C194.382 19.4411 193.49 19.6114 192.451 19.6114L192.89 18.5455C193.973 18.5455 194.916 18.7157 195.721 19.0562C196.525 19.3819 197.147 19.863 197.586 20.4996C198.04 21.1213 198.266 21.8837 198.266 22.7867C198.266 24.1339 197.725 25.1849 196.643 25.9399C195.575 26.6801 194.009 27.0502 191.946 27.0502H183.652ZM187.953 23.8748H191.595C192.341 23.8748 192.905 23.749 193.285 23.4973C193.68 23.2308 193.878 22.8311 193.878 22.2982C193.878 21.7653 193.68 21.373 193.285 21.1213C192.905 20.8549 192.341 20.7216 191.595 20.7216H187.645V17.6795H190.937C191.668 17.6795 192.217 17.5537 192.583 17.302C192.949 17.0503 193.131 16.6728 193.131 16.1695C193.131 15.6662 192.949 15.2961 192.583 15.0593C192.217 14.8076 191.668 14.6818 190.937 14.6818H187.953V23.8748Z" fill="white"/>
<path d="M208.197 27.361C206.983 27.361 205.857 27.1686 204.818 26.7837C203.779 26.384 202.88 25.8215 202.119 25.0961C201.373 24.3707 200.787 23.5195 200.363 22.5425C199.939 21.5506 199.727 20.4626 199.727 19.2783C199.727 18.094 199.939 17.0133 200.363 16.0363C200.787 15.0445 201.38 14.1858 202.141 13.4605C202.901 12.7351 203.801 12.18 204.84 11.7951C205.893 11.3954 207.042 11.1955 208.285 11.1955C209.733 11.1955 211.028 11.4398 212.169 11.9283C213.31 12.4168 214.254 13.12 215 14.0378L212.235 16.5692C211.708 15.9919 211.138 15.5626 210.523 15.2813C209.924 14.9852 209.251 14.8372 208.505 14.8372C207.846 14.8372 207.246 14.9408 206.705 15.1481C206.164 15.3553 205.703 15.6588 205.323 16.0585C204.942 16.4434 204.642 16.9097 204.423 17.4574C204.218 17.9904 204.116 18.5973 204.116 19.2783C204.116 19.9296 204.218 20.5292 204.423 21.0769C204.642 21.6246 204.942 22.0984 205.323 22.4981C205.703 22.8829 206.156 23.1864 206.683 23.4085C207.224 23.6157 207.817 23.7194 208.461 23.7194C209.104 23.7194 209.733 23.6157 210.348 23.4085C210.962 23.1864 211.584 22.8163 212.213 22.2982L214.649 25.3848C213.771 26.0213 212.754 26.5098 211.599 26.8503C210.443 27.1908 209.309 27.361 208.197 27.361ZM214.649 25.3848L210.809 24.8074V18.9452H214.649V25.3848Z" fill="white"/>
<path d="M147.449 19.942L147.92 11.4102L155.909 19.4668L147.449 19.942Z" fill="#04FFFF"/>
<path d="M155.828 19.5995L156.345 11.0218L164.333 19.0784L155.828 19.5995Z" fill="white"/>
<path d="M155.208 27.9882L155.695 19.4404L163.684 27.497L155.208 27.9882Z" fill="#FF9B05"/>
<path d="M0 11.4836L11.3485 0L13.6182 2.29673L2.26971 13.7804L0 11.4836Z" fill="#FB8500"/>
<path d="M4.53923 16.0771L15.8878 4.59346L18.1575 6.89019L6.80894 18.3738L4.53923 16.0771Z" fill="#FB8500"/>
</svg>

<svg width="215" height="28" fill="none" xmlns="http://www.w3.org/2000/svg"><path d="M16.155 22.365c-2.15 0-3.796-.518-4.938-1.555-1.126-1.036-1.69-2.546-1.69-4.53v-4.774h4.28v4.286c0 1.007.241 1.762.724 2.265.497.489 1.222.733 2.172.733.615 0 1.193-.06 1.734-.178a4.882 4.882 0 0 0 1.47-.6l.11 3.531a16.5 16.5 0 0 1-2.04.622c-.63.133-1.237.2-1.822.2Zm3.27 4.685V11.506h4.279V27.05h-4.28ZM27.002 27.05V11.506h4.28v9.127l6.341-9.127h4.082V27.05h-4.28v-9.104l-6.32 9.104h-4.103ZM48.404 27.05V14.016l.966.977h-5.684v-3.487H57.38v3.487h-5.662l.965-.977V27.05h-4.279ZM59.383 27.05V11.506h4.279v4.952h3.554c1.873 0 3.321.422 4.346 1.266 1.038.844 1.558 2.11 1.558 3.797 0 1.82-.578 3.198-1.734 4.13-1.156.933-2.736 1.4-4.74 1.4h-7.264Zm4.279-3.153h2.699c.731 0 1.31-.2 1.733-.6.44-.4.659-.962.659-1.687 0-.74-.22-1.258-.659-1.555-.424-.31-1.002-.466-1.733-.466h-2.7v4.308Zm11.147 3.153V11.506h4.28V27.05h-4.28ZM99.054 27.05V11.506h4.345V27.05h-4.345Zm-10.27 0V11.506h4.345V27.05h-4.345Zm4.038-6.062v-3.642h6.54v3.642h-6.54ZM105.163 27.05l6.781-15.544h4.279l6.803 15.544h-4.52l-5.311-13.39h1.712l-5.311 13.39h-4.433Zm3.709-3.02 1.119-3.242h7.505l1.119 3.242h-9.743ZM131.063 27.05V11.506h7.022c1.404 0 2.611.23 3.621.689 1.024.459 1.814 1.125 2.37 1.998.556.859.834 1.88.834 3.065 0 1.17-.278 2.183-.834 3.042-.556.858-1.346 1.524-2.37 1.998-1.01.46-2.217.689-3.621.689h-4.608l1.931-1.91v5.973h-4.345Zm4.345-5.507-1.931-2.02h4.345c.907 0 1.58-.2 2.018-.6.454-.4.681-.955.681-1.665 0-.726-.227-1.288-.681-1.688-.438-.4-1.111-.6-2.018-.6h-4.345l1.931-2.02v8.593ZM173.489 27.361c-2.268 0-4.038-.63-5.311-1.887-1.273-1.259-1.909-3.043-1.909-5.352v-8.616h4.345v8.483c0 1.332.256 2.287.768 2.864.527.578 1.243.866 2.15.866.907 0 1.617-.288 2.129-.866.512-.577.768-1.532.768-2.864v-8.483h4.279v8.616c0 2.31-.636 4.093-1.909 5.352-1.273 1.258-3.043 1.887-5.31 1.887ZM183.652 27.05V11.506h7.856c2.018 0 3.525.378 4.52 1.133.995.74 1.492 1.717 1.492 2.931 0 .8-.212 1.503-.636 2.11-.41.592-.995 1.065-1.756 1.42-.746.341-1.638.511-2.677.511l.439-1.066c1.083 0 2.026.17 2.831.511.804.326 1.426.807 1.865 1.444.454.621.68 1.384.68 2.287 0 1.347-.541 2.398-1.623 3.153-1.068.74-2.634 1.11-4.697 1.11h-8.294Zm4.301-3.175h3.642c.746 0 1.31-.126 1.69-.378.395-.266.593-.666.593-1.199s-.198-.925-.593-1.177c-.38-.266-.944-.4-1.69-.4h-3.95V17.68h3.292c.731 0 1.28-.126 1.646-.378.366-.252.548-.63.548-1.133s-.182-.873-.548-1.11c-.366-.251-.915-.377-1.646-.377h-2.984v9.193ZM208.197 27.361c-1.214 0-2.34-.192-3.379-.577a8.052 8.052 0 0 1-2.699-1.688 7.925 7.925 0 0 1-1.756-2.553c-.424-.992-.636-2.08-.636-3.265 0-1.184.212-2.265.636-3.242a7.696 7.696 0 0 1 1.778-2.576 7.765 7.765 0 0 1 2.699-1.665c1.053-.4 2.202-.6 3.445-.6 1.448 0 2.743.245 3.884.733 1.141.489 2.085 1.192 2.831 2.11l-2.765 2.531c-.527-.577-1.097-1.006-1.712-1.288-.599-.296-1.272-.444-2.018-.444-.659 0-1.259.104-1.8.311a3.708 3.708 0 0 0-1.382.91 4.152 4.152 0 0 0-.9 1.4c-.205.532-.307 1.14-.307 1.82 0 .652.102 1.251.307 1.799.219.548.519 1.021.9 1.421.38.385.833.688 1.36.91.541.208 1.134.311 1.778.311.643 0 1.272-.103 1.887-.31.614-.223 1.236-.593 1.865-1.11l2.436 3.086c-.878.636-1.895 1.125-3.05 1.465-1.156.34-2.29.511-3.402.511Zm6.452-1.976-3.84-.578v-5.862h3.84v6.44Z" fill="#fff"/><path d="m147.449 19.942.471-8.532 7.989 8.057-8.46.475Z" fill="#04FFFF"/><path d="m155.828 19.6.517-8.578 7.988 8.056-8.505.521Z" fill="#fff"/><path d="m155.208 27.988.487-8.548 7.989 8.057-8.476.491Z" fill="#FF9B05"/><path d="M0 11.484 11.348 0l2.27 2.297L2.27 13.78 0 11.484ZM4.54 16.077 15.887 4.593l2.27 2.297-11.35 11.484-2.269-2.297Z" fill="#FB8500"/></svg>
